src/tv.svg

<svg viewBox="0 0 16 16" fill="none" xmlns="http://www.w3.org/2000/svg"><path fill-rule="evenodd" clip-rule="evenodd" d="M9.41 3H13C13.2652 3 13.5196 3.10536 13.7071 3.29289C13.8946 3.48043 14 3.73478 14 4V11C14 11.2652 13.8946 11.5196 13.7071 11.7071C13.5196 11.8946 13.2652 12 13 12H9V13H12V14H4V13H7V12H3C2.73478 12 2.48043 11.8946 2.29289 11.7071C2.10536 11.5196 2 11.2652 2 11V4C2 3.73478 2.10536 3.48043 2.29289 3.29289C2.48043 3.10536 2.73478 3 3 3H6.59L5.79 2.21L6.5 1.5L8 3L10 1L10.71 1.71L9.41 3ZM3 4V11H13V4H3ZM12 4.78V10H4V4.78H12ZM11 5.78H5V9H11V5.78Z" fill="#111111"/></svg>

<svg viewBox="0 0 16 16" fill="none" xmlns="http://www.w3.org/2000/svg"><path fill-rule="evenodd" clip-rule="evenodd" d="M9.41 3H13a1 1 0 0 1 1 1v7a1 1 0 0 1-1 1H9v1h3v1H4v-1h3v-1H3a1 1 0 0 1-1-1V4a1 1 0 0 1 1-1h3.59l-.8-.79.71-.71L8 3l2-2 .71.71L9.41 3ZM3 4v7h10V4H3Zm9 .78V10H4V4.78h8Zm-1 1H5V9h6V5.78Z" fill="#111111"/></svg>
